X: 39483
T: Tatnuck Magnet, The
R: reel
M: 4/4
K: Gmajor
B3 d dBAG|E3 c cBGE|DB, B,2 DEGA|B2 cB AGEG|
B3 d dBAG|E3 c cBGE|DB, B,2 DEGB|A2 BA GDEG:|
Bd d2 dgfg|edge dBGB|c3 d B2 Bd|A2 AB AGEA|
Bd d2 dgfg|edge dBGB|c3 d BDGB|ADFA GABc|
d3 d dgfg|edge dBGB|c3 d B2 Bd|A2 AB AGEA|
B3 d gdeg|dBGB AGEG|c3 B AGEG|1 ,2 DEGA GDEG||3 DEGA GEDB,|G,4||

